icons/shopping-basket-2-fill.svg

<svg viewBox="0 0 24 24" fill="currentColor" xmlns="http://www.w3.org/2000/svg">
    <path d="M15.3709 3.44L18.5819 9.002L22.0049 9.00218V11.0022L20.8379 11.002L20.0813 20.0852C20.0381 20.6035 19.6048 21.0022 19.0847 21.0022H4.92502C4.40493 21.0022 3.97166 20.6035 3.92847 20.0852L3.17088 11.002L2.00488 11.0022V9.00218L5.42688 9.002L8.63886 3.44L10.3709 4.44L7.73688 9.002H16.2719L13.6389 4.44L15.3709 3.44ZM13.0049 13.0022H11.0049V17.0022H13.0049V13.0022ZM9.00488 13.0022H7.00488V17.0022H9.00488V13.0022ZM17.0049 13.0022H15.0049V17.0022H17.0049V13.0022Z"/>
</svg>

<svg xmlns="http://www.w3.org/2000/svg" viewBox="0 0 24 24">
    <g>
        <path fill="none" d="M0 0h24v24H0z"/>
        <path d="M15.366 3.438L18.577 9H22v2h-1.167l-.757 9.083a1 1 0 0 1-.996.917H4.92a1 1 0 0 1-.996-.917L3.166 11H2V9h3.422l3.212-5.562 1.732 1L7.732 9h8.535l-2.633-4.562 1.732-1zM13 13h-2v4h2v-4zm-4 0H7v4h2v-4zm8 0h-2v4h2v-4z"/>
    </g>
</svg>
